X:17
T:Walls of Madrid Waltz,The. RHu.017
S:R.Hughes MS,1823,Whitchurch,Shrops.
T:Swiss Waltz RHu.016
R:waltz
A:Whitchurch, Shropshire
Z:Neil Brookes 2006
M:3/8
L:1/8
Q:3/8=50
K:C
G|cc/G/c/e/|cc/G/c/e/|cc/G/c/e/|d2d/c/|\
BB/G/B/d/|BB/G/B/d/|g/a/g/f/e/d/|c2::!
g/f/|ee/f/g/e/|ff/g/a/f/”f is g in MS”|dd/e/f/d/|e2g/e/|\
cc/d/e/c/|Af/e/d/c/|Bd/B/G/B/|c2:|

